build/fonts/cisco/printer.svg

<?xml version="1.0" encoding="UTF-8" standalone="no"?>
<svg
   xmlns:dc="http://purl.org/dc/elements/1.1/"
   xmlns:cc="http://creativecommons.org/ns#"
   xmlns:rdf="http://www.w3.org/1999/02/22-rdf-syntax-ns#"
   xmlns:svg="http://www.w3.org/2000/svg"
   xmlns="http://www.w3.org/2000/svg"
   viewBox="0 0 53.75 22.5"
   height="22.5"
   width="53.75"
   xml:space="preserve"
   version="1.1"
   id="svg2"><metadata
     id="metadata8"><rdf:RDF><cc:Work
         rdf:about=""><dc:format>image/svg+xml</dc:format><dc:type
           rdf:resource="http://purl.org/dc/dcmitype/StillImage" /></cc:Work></rdf:RDF></metadata><defs
     id="defs6"><clipPath
       id="clipPath18"
       clipPathUnits="userSpaceOnUse"><path
         id="path20"
         d="M 0,10 0,179 430,179 430,10 0,10 Z" /></clipPath></defs><g
     transform="matrix(1.25,0,0,-1.25,0,22.5)"
     id="g10"><g
       transform="scale(0.1,0.1)"
       id="g12"><g
         id="g14"><g
           clip-path="url(#clipPath18)"
           id="g16"><path
             id="path22"
             style="fill:#02709f;fill-opacity:1;fill-rule:nonzero;stroke:none"
             d="m 5,15.25 277.461,0 0,126.25 L 5,141.5 5,15.25 Z" /><path
             id="path24"
             style="fill:none;stroke:#ffffff;stroke-width:3.99993992;stroke-linecap:butt;stroke-linejoin:miter;stroke-miterlimit:4;stroke-dasharray:none;stroke-opacity:1"
             d="m 5,15.25 277.461,0 0,126.25 L 5,141.5 5,15.25 Z" /><path
             id="path26"
             style="fill:#02709f;fill-opacity:1;fill-rule:nonzero;stroke:none"
             d="m 282.461,14.8594 0,126.6406 -277.62116,0 35.74996,35.738 277.3402,0 0,-126.6364 -35.469,-35.7422" /><path
             id="path28"
             style="fill:none;stroke:#ffffff;stroke-width:3.99993992;stroke-linecap:butt;stroke-linejoin:miter;stroke-miterlimit:4;stroke-dasharray:none;stroke-opacity:1"
             d="m 282.461,14.8594 0,126.6406 -277.62116,0 35.74996,35.738 277.3402,0 0,-126.6364 -35.469,-35.7422 z" /><path
             id="path30"
             style="fill:#02709f;fill-opacity:1;fill-rule:nonzero;stroke:none"
             d="m 282.461,141.5 35.469,35.738" /><path
             id="path32"
             style="fill:none;stroke:#ffffff;stroke-width:3.99993992;stroke-linecap:butt;stroke-linejoin:miter;stroke-miterlimit:4;stroke-dasharray:none;stroke-opacity:1"
             d="m 282.461,141.5 35.469,35.738" /><path
             id="path34"
             style="fill:none;stroke:#ffffff;stroke-width:3.99993992;stroke-linecap:butt;stroke-linejoin:miter;stroke-miterlimit:4;stroke-dasharray:none;stroke-opacity:1"
             d="M 282.461,48.7305 5,48.7305" /><path
             id="path36"
             style="fill:#02709f;fill-opacity:1;fill-rule:nonzero;stroke:none"
             d="M 317.93,84.0391 282.461,48.3008" /><path
             id="path38"
             style="fill:none;stroke:#ffffff;stroke-width:3.99993992;stroke-linecap:butt;stroke-linejoin:miter;stroke-miterlimit:4;stroke-dasharray:none;stroke-opacity:1"
             d="M 317.93,84.0391 282.461,48.3008" /><path
             id="path40"
             style="fill:#02709f;fill-opacity:1;fill-rule:nonzero;stroke:none"
             d="M 431.289,150.762 395.82,115.02 282.461,75.0898 317.93,110.84 431.289,150.762" /><path
             id="path42"
             style="fill:none;stroke:#ffffff;stroke-width:3.99993992;stroke-linecap:butt;stroke-linejoin:miter;stroke-miterlimit:4;stroke-dasharray:none;stroke-opacity:1"
             d="M 431.289,150.762 395.82,115.02 282.461,75.0898 317.93,110.84 431.289,150.762 Z" /></g></g></g></g></svg>

<svg xmlns="http://www.w3.org/2000/svg" viewBox="0 0 53.75 22.5" height="22.5" width="53.75"><defs><clipPath id="a"><path d="M0 10v169h430V10H0z"/></clipPath></defs><g clip-path="url(#a)" transform="matrix(.13 0 0 -.13 0 22.5)"><path d="M5 15.25h277.461V141.5H5V15.25z" fill="#02709f"/><path d="M5 15.25h277.461V141.5H5V15.25z" fill="none" stroke="#fff" stroke-width="4"/><path d="M282.461 14.86V141.5H4.84l35.75 35.738h277.34V50.602l-35.469-35.743" fill="#02709f"/><path d="M282.461 14.86V141.5H4.84l35.75 35.738h277.34V50.602l-35.469-35.743z" fill="none" stroke="#fff" stroke-width="4"/><path d="M282.461 141.5l35.469 35.738" fill="#02709f"/><path d="M282.461 141.5l35.469 35.738M282.461 48.73H5" fill="none" stroke="#fff" stroke-width="4"/><path d="M317.93 84.04L282.461 48.3" fill="#02709f"/><path d="M317.93 84.04L282.461 48.3" fill="none" stroke="#fff" stroke-width="4"/><path d="M431.289 150.762L395.82 115.02 282.461 75.09l35.469 35.75 113.359 39.922" fill="#02709f"/><path d="M431.289 150.762L395.82 115.02 282.461 75.09l35.469 35.75 113.359 39.922z" fill="none" stroke="#fff" stroke-width="4"/></g></svg>
